Newaita/actions/24/view-object-histogram-linear.svg

<svg height="24" viewBox="0 0 24 24" width="24" xmlns="http://www.w3.org/2000/svg"><g fill="#424242"><path d="m3.96875 21.523438v-18.855469c0-.273438-.222656-.496094-.496094-.496094-.273437 0-.496094.222656-.496094.496094v18.855469c0 .273437.222657.496093.496094.496093.273438 0 .496094-.222656.496094-.496093zm0 0"/><path d="m2.480469 21.027344h18.855469c.273437 0 .496093-.199219.496093-.441406v-.113282c0-.242187-.222656-.441406-.496093-.441406h-18.855469c-.273438 0-.496094.199219-.496094.441406v.113282c0 .242187.222656.441406.496094.441406zm0 0"/><path d="m11.90625 2.171875c-.273438 0-.496094.222656-.496094.496094v4.464843h-1.488281c-.273437 0-.496094.222657-.496094.496094v3.472656h-1.488281c-.273438 0-.496094.222657-.496094.496094v2.976563h-1.488281c-.273437 0-.496094.222656-.496094.496093v2.542969c0 .242188.222657.433594.496094.433594h14.886719c.273437 0 .496094-.191406.496094-.433594v-2.046875c0-.273437-.222657-.496094-.496094-.496094h-.996094c-.273438 0-.496094.222657-.496094.496094v.496094h-1.984375v-1.984375c0-.273437-.21875-.496094-.496093-.496094h-1.488282v-3.472656c0-.273437-.21875-.496094-.496094-.496094h-1.488281v-6.945312c0-.273438-.21875-.496094-.496093-.496094zm0 0"/></g></svg>

<svg xmlns="http://www.w3.org/2000/svg" xmlns:xlink="http://www.w3.org/1999/xlink" width="24px" height="24px" viewBox="0 0 24 24" version="1.1">
<g id="surface1">
     <defs>
  <style id="current-color-scheme" type="text/css">
   .ColorScheme-Text { color:#424242; } .ColorScheme-Highlight { color:#eeeeee; }
  </style>
 </defs>
<path style="fill:currentColor" class="ColorScheme-Text" d="M 3.96875 21.523438 L 3.96875 2.667969 C 3.96875 2.394531 3.746094 2.171875 3.472656 2.171875 C 3.199219 2.171875 2.976562 2.394531 2.976562 2.667969 L 2.976562 21.523438 C 2.976562 21.796875 3.199219 22.019531 3.472656 22.019531 C 3.746094 22.019531 3.96875 21.796875 3.96875 21.523438 Z M 3.96875 21.523438 "/>
     <defs>
  <style id="current-color-scheme" type="text/css">
   .ColorScheme-Text { color:#424242; } .ColorScheme-Highlight { color:#eeeeee; }
  </style>
 </defs>
<path style="fill:currentColor" class="ColorScheme-Text" d="M 2.480469 21.027344 L 21.335938 21.027344 C 21.609375 21.027344 21.832031 20.828125 21.832031 20.585938 L 21.832031 20.472656 C 21.832031 20.230469 21.609375 20.03125 21.335938 20.03125 L 2.480469 20.03125 C 2.207031 20.03125 1.984375 20.230469 1.984375 20.472656 L 1.984375 20.585938 C 1.984375 20.828125 2.207031 21.027344 2.480469 21.027344 Z M 2.480469 21.027344 "/>
     <defs>
  <style id="current-color-scheme" type="text/css">
   .ColorScheme-Text { color:#424242; } .ColorScheme-Highlight { color:#eeeeee; }
  </style>
 </defs>
<path style="fill:currentColor" class="ColorScheme-Text" d="M 11.90625 2.171875 C 11.632812 2.171875 11.410156 2.394531 11.410156 2.667969 L 11.410156 7.132812 L 9.921875 7.132812 C 9.648438 7.132812 9.425781 7.355469 9.425781 7.628906 L 9.425781 11.101562 L 7.9375 11.101562 C 7.664062 11.101562 7.441406 11.324219 7.441406 11.597656 L 7.441406 14.574219 L 5.953125 14.574219 C 5.679688 14.574219 5.457031 14.796875 5.457031 15.070312 L 5.457031 17.613281 C 5.457031 17.855469 5.679688 18.046875 5.953125 18.046875 L 20.839844 18.046875 C 21.113281 18.046875 21.335938 17.855469 21.335938 17.613281 L 21.335938 15.566406 C 21.335938 15.292969 21.113281 15.070312 20.839844 15.070312 L 19.84375 15.070312 C 19.570312 15.070312 19.347656 15.292969 19.347656 15.566406 L 19.347656 16.0625 L 17.363281 16.0625 L 17.363281 14.078125 C 17.363281 13.804688 17.144531 13.582031 16.867188 13.582031 L 15.378906 13.582031 L 15.378906 10.109375 C 15.378906 9.835938 15.160156 9.613281 14.882812 9.613281 L 13.394531 9.613281 L 13.394531 2.667969 C 13.394531 2.394531 13.175781 2.171875 12.898438 2.171875 Z M 11.90625 2.171875 "/>
</g>
</svg>
